**kern	**kern	**dynam
*part1	*part1	*part1
*staff2	*staff1	*
*I"Piano	*	*
*clefF4	*clefG2	*
*k[b-e-a-]	*k[b-e-a-]	*
*M2/4	*M2/4	*
=1	=1	=1
4GG 4D	(8.bnL 8.dd	f
.	16anJk 16cc	.
4D 4En 4G	8gL 8b	.
.	8aJ 8cc	.
=	=	=
4GG 4D	8bnL 8dd	.
.	8BnJ 8d	.
4D 4En 4G	4B) 4d	mf
=	=	=
4GG 4D	2r	.
!	!	!LO:DY:a
4D 4En 4G	.	>
=	=	=
*	*^	*
4GG 4D	8g'L	4B-X	.
.	8g'J	.	.
*	*v	*v	*
4E-X 4G	4An^ 4c#X	]]
=	=	=
4GGG 4DD	8.B-L 8.d	p
.	16AnJk 16cn	.
!	!LO:TX:b:i:t=dim e rit.	!
4GG 4D 4En	8GL 8B-	.
.	8AJ 8c	.
=	=	=
4GGG 4DD	[2B- [2d	.
4GG 4D 4En	.	.
=	=	=
4GGG 4DD	8B-L] 8d]	>
.	8AnJ 8c	.
4GG 4E-X	8GL 8B-	.
.	8AJ 8c	.
=||	=||	=||
*-	*-	*-
!!!system-decoration: {(s1,s2)}
